lib/flags/im-isle-of-man.svg

<svg xmlns="http://www.w3.org/2000/svg" fill="none" aria-hidden="true" viewBox="0 0 42 30"><g id="Country=IM - Isle of Man, Size=sm (36x24)" filter="url(#filter0_dd_91_27567)"><g clip-path="url(#clip0_91_27567)"><g id="flag"><mask id="mask0_91_27567" width="36" height="24" x="3" y="2" maskUnits="userSpaceOnUse" style="mask-type:alpha"><rect id="mask" width="36" height="24" x="3" y="2" fill="white"/></mask><g mask="url(#mask0_91_27567)"><g id="contents"><path id="background" fill="#E31D1C" fill-rule="evenodd" d="M3 2V26H39V2H3Z" clip-rule="evenodd"/><mask id="mask1_91_27567" width="36" height="24" x="3" y="2" maskUnits="userSpaceOnUse" style="mask-type:alpha"><path id="background_2" fill="white" fill-rule="evenodd" d="M3 2V26H39V2H3Z" clip-rule="evenodd"/></mask><g mask="url(#mask1_91_27567)"><g id="mark"><g id="leg"><path id="Path 87" fill="#F7FCFF" fill-rule="evenodd" d="M9.85298 6.11853C9.84512 6.0289 9.95061 5.98363 10.0149 6.04655C10.4984 6.51958 11.8682 7.788 12.6544 7.788C13.6208 7.788 17.416 4.94535 18.5378 5.40842C19.6596 5.8715 21.9309 10.7131 21.9309 10.7131L20.4508 12.3634L18.5378 11.4358L18.1763 7.788C18.1763 7.788 14.4941 9.47148 12.6544 8.86041L11.6202 9.63287C11.6202 9.63287 10.6242 7.87987 10.232 7.34369C9.96627 6.98035 9.88059 6.43339 9.85298 6.11853Z" clip-rule="evenodd"/><path id="Star 13" fill="#FECA00" fill-rule="evenodd" d="M12.2946 10.1249L11.6648 10.464L11.7851 9.74566L11.2756 9.23691L11.9797 9.1321L12.2946 8.47852L12.6095 9.1321L13.3136 9.23691L12.8041 9.74566L12.9243 10.464L12.2946 10.1249Z" clip-rule="evenodd"/><path id="Rectangle 30" fill="#FECA00" fill-rule="evenodd" d="M17.6392 5.83774C17.6392 5.61238 17.8219 5.42969 18.0472 5.42969V5.42969C18.2726 5.42969 18.4553 5.61238 18.4553 5.83774V7.46066C18.4553 7.68602 18.2726 7.86871 18.0472 7.86871V7.86871C17.8219 7.86871 17.6392 7.68602 17.6392 7.46066L17.6392 5.83774Z" clip-rule="evenodd"/></g><g id="leg_2"><path id="Path 87_2" fill="#F7FCFF" fill-rule="evenodd" d="M31.3849 7.1093C31.471 7.14901 31.4442 7.26326 31.3466 7.27916C30.6151 7.39829 28.7282 7.75681 28.3176 8.34097C27.8055 9.06945 28.5063 13.4368 27.47 14.037C26.4338 14.6373 20.611 13.7837 20.611 13.7837L19.8209 11.7935L21.7196 10.843L25.3914 12.5035C25.3914 12.5035 25.7365 8.83569 27.2944 7.77268L27.1055 6.58374C27.1055 6.58374 29.3057 6.76192 30.0251 6.75041C30.5075 6.74268 31.068 6.96318 31.3849 7.1093Z" clip-rule="evenodd"/><path id="Star 13_2" fill="#FECA00" fill-rule="evenodd" d="M26.279 6.83123L26.2892 6.17677L26.9108 6.64811L27.6661 6.53364L27.393 7.11995L27.8497 7.70366L27.0593 7.59468L26.5862 8.06991L26.3708 7.41624L25.6217 7.12624L26.279 6.83123Z" clip-rule="evenodd"/><path id="Rectangle 30_2" fill="#FECA00" fill-rule="evenodd" d="M27.6716 13.215C27.8634 13.3208 27.9216 13.5497 27.8031 13.7328V13.7328C27.6758 13.9295 27.3967 13.9948 27.195 13.8751L25.4178 12.82C25.2705 12.7325 25.2126 12.5621 25.2775 12.4071V12.4071C25.3672 12.1929 25.6475 12.0992 25.8556 12.2138L27.6716 13.215Z" clip-rule="evenodd"/></g><g id="leg_3"><path id="Path 87_3" fill="#F7FCFF" fill-rule="evenodd" d="M19.7091 22.9902C19.6276 23.0365 19.5293 22.9572 19.5627 22.8738C19.813 22.2493 20.405 20.6211 20.0417 20.0137C19.588 19.2553 14.9826 17.6111 14.9159 16.5133C14.8493 15.4154 18.5922 11.3598 18.5922 11.3598L20.9263 11.7467L20.903 13.6836L17.4493 15.6799C17.4493 15.6799 20.8502 17.7795 21.107 19.5103L22.3598 19.9593C22.3598 19.9593 21.0861 21.5639 20.7376 22.1235C20.5042 22.4982 20.01 22.8191 19.7091 22.9902Z" clip-rule="evenodd"/><path id="Star 13_3" fill="#FECA00" fill-rule="evenodd" d="M22.5317 19.1992L23.1643 19.5342L22.3943 19.7771L22.1281 20.4158L21.6935 19.9124L20.8964 19.9721L21.3978 19.4181L21.1713 18.8163L21.9159 18.9773L22.573 18.5457L22.5317 19.1992Z" clip-rule="evenodd"/><path id="Rectangle 30_3" fill="#FECA00" fill-rule="evenodd" d="M15.472 16.9642C15.2331 17.0453 14.9595 16.9127 14.8855 16.6801V16.6801C14.8226 16.4824 14.9278 16.2805 15.1302 16.2103L17.06 15.5409C17.2561 15.4729 17.4846 15.5466 17.6032 15.716V15.716C17.7573 15.9363 17.6632 16.2208 17.4075 16.3075L15.472 16.9642Z" clip-rule="evenodd"/></g><path id="Path 88" fill="#FECA00" d="M18.3704 11.7651C18.2304 11.7216 18.1556 11.583 18.2034 11.4555C18.2511 11.3281 18.4755 11.1151 18.6155 11.1586L20.5682 11.7651C20.669 11.7964 20.7398 11.8791 20.7487 11.9757L20.9233 13.8795C20.9356 14.0138 20.7156 14.1224 20.5682 14.1336C20.4208 14.1448 20.2913 14.045 20.279 13.9108L20.1173 12.2736L18.3704 11.7651Z"/><path id="Path 89" fill="#FECA00" d="M21.7656 10.7676C21.8823 10.6849 22.0908 10.7808 22.1816 10.8871C22.2725 10.9933 22.2516 11.1466 22.1349 11.2293L20.7822 12.4618C20.6654 12.5445 20.4029 12.3831 20.312 12.2768C20.2212 12.1705 20.1953 11.881 20.312 11.7982L21.7656 10.7676Z"/></g></g></g></g></g></g></g><defs><filter id="filter0_dd_91_27567" width="42" height="30" x="0" y="0" color-interpolation-filters="sRGB" filterUnits="userSpaceOnUse"><feFlood flood-opacity="0" result="BackgroundImageFix"/><feColorMatrix in="SourceAlpha" result="hardAlpha" values="0 0 0 0 0 0 0 0 0 0 0 0 0 0 0 0 0 0 127 0"/><feOffset dy="1"/><feGaussianBlur stdDeviation="1"/><feColorMatrix values="0 0 0 0 0.0627451 0 0 0 0 0.0941176 0 0 0 0 0.156863 0 0 0 0.06 0"/><feBlend in2="BackgroundImageFix" result="effect1_dropShadow_91_27567"/><feColorMatrix in="SourceAlpha" result="hardAlpha" values="0 0 0 0 0 0 0 0 0 0 0 0 0 0 0 0 0 0 127 0"/><feOffset dy="1"/><feGaussianBlur stdDeviation="1.5"/><feColorMatrix values="0 0 0 0 0.0627451 0 0 0 0 0.0941176 0 0 0 0 0.156863 0 0 0 0.1 0"/><feBlend in2="effect1_dropShadow_91_27567" result="effect2_dropShadow_91_27567"/><feBlend in="SourceGraphic" in2="effect2_dropShadow_91_27567" result="shape"/></filter><clipPath id="clip0_91_27567"><rect width="36" height="24" x="3" y="2" fill="white" rx="2"/></clipPath></defs></svg>

<svg xmlns="http://www.w3.org/2000/svg" fill="none" aria-hidden="true" viewBox="0 0 42 30"><g filter="url(#a)"><g clip-path="url(#b)"><mask id="c" width="36" height="24" x="3" y="2" maskUnits="userSpaceOnUse" style="mask-type:alpha"><path fill="#fff" d="M3 2h36v24H3z"/></mask><g mask="url(#c)"><path fill="#E31D1C" fill-rule="evenodd" d="M3 2v24h36V2H3Z" clip-rule="evenodd"/><mask id="d" width="36" height="24" x="3" y="2" maskUnits="userSpaceOnUse" style="mask-type:alpha"><path fill="#fff" fill-rule="evenodd" d="M3 2v24h36V2H3Z" clip-rule="evenodd"/></mask><g mask="url(#d)"><g fill-rule="evenodd" clip-rule="evenodd"><path fill="#F7FCFF" d="M9.853 6.119c-.008-.09.098-.135.162-.072.483.473 1.853 1.741 2.64 1.741.966 0 4.761-2.843 5.883-2.38 1.122.463 3.393 5.305 3.393 5.305l-1.48 1.65-1.913-.927-.362-3.648s-3.682 1.683-5.522 1.072l-1.034.773s-.996-1.753-1.388-2.29c-.266-.363-.351-.91-.379-1.224Z"/><path fill="#FECA00" d="m12.295 10.125-.63.339.12-.718-.51-.51.705-.104.315-.653.315.653.704.105-.51.509.12.718-.63-.34Zm5.345-4.287a.408.408 0 0 1 .816 0V7.46a.408.408 0 1 1-.816 0V5.838Z"/></g><g fill-rule="evenodd" clip-rule="evenodd"><path fill="#F7FCFF" d="M31.385 7.11c.086.039.06.153-.038.17-.732.118-2.619.477-3.03 1.061-.512.728.19 5.096-.847 5.696-1.036.6-6.859-.253-6.859-.253l-.79-1.99 1.899-.951 3.671 1.66s.346-3.667 1.903-4.73l-.189-1.19s2.2.179 2.92.167c.483-.007 1.043.213 1.36.36Z"/><path fill="#FECA00" d="m26.279 6.831.01-.654.622.471.755-.114-.273.586.457.584-.79-.11-.474.476-.215-.654-.75-.29.658-.295Zm1.393 6.384c.191.106.25.335.131.518a.46.46 0 0 1-.608.142l-1.777-1.055a.326.326 0 0 1-.14-.413.42.42 0 0 1 .578-.193l1.816 1.001Z"/></g><g fill-rule="evenodd" clip-rule="evenodd"><path fill="#F7FCFF" d="M19.71 22.99c-.082.047-.18-.033-.147-.116.25-.625.842-2.253.479-2.86-.454-.759-5.06-2.403-5.126-3.5-.067-1.099 3.676-5.154 3.676-5.154l2.334.387-.023 1.937-3.454 1.996s3.401 2.1 3.658 3.83l1.253.45s-1.274 1.604-1.622 2.163c-.234.375-.728.696-1.029.867Z"/><path fill="#FECA00" d="m22.532 19.2.632.334-.77.243-.266.639-.434-.504-.798.06.502-.554-.227-.602.745.161.657-.431-.041.653Zm-7.06-2.236a.466.466 0 0 1-.586-.284.373.373 0 0 1 .244-.47l1.93-.67a.482.482 0 0 1 .543.176c.154.22.06.505-.196.592l-1.935.656Z"/></g><path fill="#FECA00" d="M18.37 11.765c-.14-.043-.214-.182-.167-.31.048-.127.273-.34.413-.296l1.952.606a.25.25 0 0 1 .18.21l.175 1.905c.013.134-.207.242-.355.254-.147.01-.277-.089-.289-.223l-.162-1.637-1.747-.509Z"/><path fill="#FECA00" d="M21.766 10.768c.116-.083.325.013.416.12a.23.23 0 0 1-.047.341l-1.353 1.233c-.117.082-.38-.079-.47-.185-.09-.106-.117-.396 0-.479l1.454-1.03Z"/></g></g></g></g><defs><clipPath id="b"><rect width="36" height="24" x="3" y="2" fill="#fff" rx="2"/></clipPath><filter id="a" width="42" height="30" x="0" y="0" color-interpolation-filters="sRGB" filterUnits="userSpaceOnUse"><feFlood flood-opacity="0" result="BackgroundImageFix"/><feColorMatrix in="SourceAlpha" result="hardAlpha" values="0 0 0 0 0 0 0 0 0 0 0 0 0 0 0 0 0 0 127 0"/><feOffset dy="1"/><feGaussianBlur stdDeviation="1"/><feColorMatrix values="0 0 0 0 0.0627451 0 0 0 0 0.0941176 0 0 0 0 0.156863 0 0 0 0.06 0"/><feBlend in2="BackgroundImageFix" result="effect1_dropShadow_91_27567"/><feColorMatrix in="SourceAlpha" result="hardAlpha" values="0 0 0 0 0 0 0 0 0 0 0 0 0 0 0 0 0 0 127 0"/><feOffset dy="1"/><feGaussianBlur stdDeviation="1.5"/><feColorMatrix values="0 0 0 0 0.0627451 0 0 0 0 0.0941176 0 0 0 0 0.156863 0 0 0 0.1 0"/><feBlend in2="effect1_dropShadow_91_27567" result="effect2_dropShadow_91_27567"/><feBlend in="SourceGraphic" in2="effect2_dropShadow_91_27567" result="shape"/></filter></defs></svg>
